images/cards/vector-2.svg

<svg width="55" height="55" viewBox="0 0 55 55" fill="none" xmlns="http://www.w3.org/2000/svg">
<path d="M52.9165 32.2116C53.0685 32.3636 53.2747 32.449 53.4897 32.449C53.7047 32.449 53.9109 32.3636 54.063 32.2116C54.215 32.0595 54.3004 31.8533 54.3004 31.6383V29.379C54.3004 29.164 54.215 28.9578 54.063 28.8057C53.9109 28.6537 53.7047 28.5683 53.4897 28.5683C53.2747 28.5683 53.0685 28.6537 52.9165 28.8057C52.7644 28.9578 52.679 29.164 52.679 29.379V31.6383C52.679 31.8533 52.7644 32.0595 52.9165 32.2116Z" fill="#CB8734" stroke="#CB8734" stroke-width="0.1"/>
<path d="M4.04286 54.175H51.2071C52.0274 54.175 52.8141 53.8491 53.3941 53.2691C53.9741 52.6891 54.3 51.9024 54.3 51.0821V36.9633C54.3 36.7483 54.2146 36.5421 54.0625 36.39C53.9105 36.238 53.7043 36.1526 53.4893 36.1526C53.2743 36.1526 53.0681 36.238 52.916 36.39C52.764 36.5421 52.6786 36.7483 52.6786 36.9633V51.0821C52.6786 51.4724 52.5235 51.8467 52.2476 52.1226C51.9717 52.3985 51.5974 52.5536 51.2071 52.5536H4.04286C3.65261 52.5536 3.27835 52.3985 3.0024 52.1226C2.72645 51.8467 2.57143 51.4724 2.57143 51.0821V3.91786C2.57143 3.52761 2.72645 3.15335 3.0024 2.8774C3.27835 2.60145 3.65261 2.44643 4.04286 2.44643H51.2071C51.5974 2.44643 51.9717 2.60145 52.2476 2.8774C52.5235 3.15335 52.6786 3.52761 52.6786 3.91786V16.5153C52.6786 16.7303 52.764 16.9365 52.916 17.0885C53.0681 17.2406 53.2743 17.326 53.4893 17.326C53.7043 17.326 53.9105 17.2406 54.0625 17.0885C54.2146 16.9365 54.3 16.7303 54.3 16.5153V3.91786C54.3 3.09758 53.9741 2.3109 53.3941 1.73088C52.8141 1.15085 52.0274 0.825 51.2071 0.825H4.04286C3.22258 0.825 2.4359 1.15085 1.85588 1.73088C1.27585 2.3109 0.95 3.09758 0.95 3.91786V51.0821C0.95 51.9024 1.27585 52.6891 1.85588 53.2691C2.4359 53.8491 3.22258 54.175 4.04286 54.175Z" fill="#CB8734" stroke="#CB8734" stroke-width="0.1"/>
<path d="M52.9165 24.6274C53.0685 24.7794 53.2747 24.8648 53.4897 24.8648C53.7047 24.8648 53.9109 24.7794 54.063 24.6274C54.215 24.4753 54.3004 24.2691 54.3004 24.0541V21.8404C54.3004 21.6254 54.215 21.4192 54.063 21.2672C53.9109 21.1151 53.7047 21.0297 53.4897 21.0297C53.2747 21.0297 53.0685 21.1151 52.9165 21.2672C52.7644 21.4192 52.679 21.6254 52.679 21.8404V24.0541C52.679 24.2691 52.7644 24.4753 52.9165 24.6274Z" fill="#CB8734" stroke="#CB8734" stroke-width="0.1"/>
<mask id="path-4-outside-1_162_2900" maskUnits="userSpaceOnUse" x="28.429" y="15.5222" width="24.0416" height="24.0416" fill="black">
<rect fill="white" x="28.429" y="15.5222" width="24.0416" height="24.0416"/>
<path fill-rule="evenodd" clip-rule="evenodd" d="M45.3688 23.8192C45.5706 23.8192 45.7641 23.739 45.9067 23.5964C46.0494 23.4537 46.1295 23.2602 46.1295 23.0585C46.1295 22.8567 46.0494 22.6632 45.9067 22.5206L40.9241 17.5379C40.7814 17.3953 40.5879 17.3151 40.3862 17.3151C40.1844 17.3151 39.9909 17.3953 39.8483 17.5379L34.8657 22.5206C34.723 22.6632 34.6429 22.8567 34.6429 23.0585C34.6429 23.2602 34.723 23.4537 34.8657 23.5964C35.0083 23.739 35.2018 23.8192 35.4036 23.8192C35.6053 23.8192 35.7988 23.739 35.9415 23.5964L39.6258 19.9121L39.6258 37.0105C39.6258 37.161 39.6705 37.308 39.754 37.4331C39.8376 37.5582 39.9564 37.6556 40.0954 37.7132C40.2344 37.7708 40.3873 37.7859 40.5348 37.7565C40.6824 37.7272 40.8179 37.6548 40.9243 37.5484C41.0669 37.4058 41.147 37.2123 41.147 37.0105L41.147 19.9125L44.8309 23.5964C44.9736 23.739 45.1671 23.8192 45.3688 23.8192Z"/>
</mask>
<path fill-rule="evenodd" clip-rule="evenodd" d="M45.3688 23.8192C45.5706 23.8192 45.7641 23.739 45.9067 23.5964C46.0494 23.4537 46.1295 23.2602 46.1295 23.0585C46.1295 22.8567 46.0494 22.6632 45.9067 22.5206L40.9241 17.5379C40.7814 17.3953 40.5879 17.3151 40.3862 17.3151C40.1844 17.3151 39.9909 17.3953 39.8483 17.5379L34.8657 22.5206C34.723 22.6632 34.6429 22.8567 34.6429 23.0585C34.6429 23.2602 34.723 23.4537 34.8657 23.5964C35.0083 23.739 35.2018 23.8192 35.4036 23.8192C35.6053 23.8192 35.7988 23.739 35.9415 23.5964L39.6258 19.9121L39.6258 37.0105C39.6258 37.161 39.6705 37.308 39.754 37.4331C39.8376 37.5582 39.9564 37.6556 40.0954 37.7132C40.2344 37.7708 40.3873 37.7859 40.5348 37.7565C40.6824 37.7272 40.8179 37.6548 40.9243 37.5484C41.0669 37.4058 41.147 37.2123 41.147 37.0105L41.147 19.9125L44.8309 23.5964C44.9736 23.739 45.1671 23.8192 45.3688 23.8192Z" fill="#CB8734"/>
<path d="M45.9067 22.5206L45.9774 22.4499L45.9067 22.5206ZM40.9241 17.5379L40.8534 17.6087L40.9241 17.5379ZM40.3862 17.3151L40.3862 17.2151L40.3862 17.2151L40.3862 17.3151ZM34.6429 23.0585L34.5429 23.0585L34.6429 23.0585ZM35.4036 23.8192V23.7192V23.8192ZM39.6258 19.9121L39.7258 19.912L39.7258 19.6706L39.5551 19.8413L39.6258 19.9121ZM39.6258 37.0105L39.5258 37.0105L39.5258 37.0105L39.6258 37.0105ZM39.754 37.4331L39.6709 37.4886L39.6709 37.4886L39.754 37.4331ZM40.0954 37.7132L40.0571 37.8056L40.0571 37.8056L40.0954 37.7132ZM40.5348 37.7565L40.5543 37.8546L40.5348 37.7565ZM40.9243 37.5484L40.995 37.6192L40.995 37.6191L40.9243 37.5484ZM41.147 37.0105L41.047 37.0105L41.047 37.0105L41.147 37.0105ZM41.147 19.9125L41.2177 19.8418L41.047 19.6711L41.047 19.9125L41.147 19.9125ZM45.836 23.5257C45.7121 23.6496 45.544 23.7192 45.3688 23.7192V23.9192C45.5971 23.9192 45.816 23.8285 45.9774 23.6671L45.836 23.5257ZM46.0295 23.0585C46.0295 23.2337 45.9599 23.4018 45.836 23.5257L45.9774 23.6671C46.1388 23.5057 46.2295 23.2868 46.2295 23.0585H46.0295ZM45.836 22.5913C45.9599 22.7152 46.0295 22.8832 46.0295 23.0585H46.2295C46.2295 22.8302 46.1388 22.6113 45.9774 22.4499L45.836 22.5913ZM40.8534 17.6087L45.836 22.5913L45.9774 22.4499L40.9948 17.4672L40.8534 17.6087ZM40.3862 17.4151C40.5614 17.4151 40.7295 17.4847 40.8534 17.6087L40.9948 17.4672C40.8334 17.3058 40.6145 17.2151 40.3862 17.2151L40.3862 17.4151ZM39.919 17.6087C40.0429 17.4847 40.211 17.4151 40.3862 17.4151L40.3862 17.2151C40.1579 17.2151 39.939 17.3058 39.7776 17.4672L39.919 17.6087ZM34.9364 22.5913L39.919 17.6087L39.7776 17.4672L34.7949 22.4499L34.9364 22.5913ZM34.7429 23.0585C34.7429 22.8832 34.8125 22.7152 34.9364 22.5913L34.7949 22.4499C34.6335 22.6113 34.5429 22.8302 34.5429 23.0585L34.7429 23.0585ZM34.9364 23.5257C34.8125 23.4018 34.7429 23.2337 34.7429 23.0585L34.5429 23.0585C34.5429 23.2868 34.6335 23.5057 34.7949 23.6671L34.9364 23.5257ZM35.4036 23.7192C35.2283 23.7192 35.0603 23.6496 34.9364 23.5257L34.7949 23.6671C34.9564 23.8285 35.1753 23.9192 35.4036 23.9192V23.7192ZM35.8708 23.5257C35.7469 23.6496 35.5788 23.7192 35.4036 23.7192V23.9192C35.6318 23.9192 35.8508 23.8285 36.0122 23.6671L35.8708 23.5257ZM39.5551 19.8413L35.8708 23.5257L36.0122 23.6671L39.6965 19.9828L39.5551 19.8413ZM39.7258 37.0105L39.7258 19.912L39.5258 19.9121L39.5258 37.0105L39.7258 37.0105ZM39.8372 37.3775C39.7646 37.2689 39.7258 37.1412 39.7258 37.0105L39.5258 37.0105C39.5258 37.1808 39.5763 37.3471 39.6709 37.4886L39.8372 37.3775ZM40.1337 37.6208C40.0129 37.5708 39.9098 37.4862 39.8372 37.3775L39.6709 37.4886C39.7655 37.6302 39.8999 37.7405 40.0571 37.8056L40.1337 37.6208ZM40.5153 37.6584C40.3872 37.6839 40.2544 37.6708 40.1337 37.6208L40.0571 37.8056C40.2144 37.8707 40.3874 37.8878 40.5543 37.8546L40.5153 37.6584ZM40.8536 37.4777C40.7612 37.5701 40.6435 37.633 40.5153 37.6584L40.5543 37.8546C40.7213 37.8214 40.8746 37.7395 40.995 37.6192L40.8536 37.4777ZM41.047 37.0105C41.047 37.1858 40.9775 37.3538 40.8536 37.4777L40.995 37.6191C41.1564 37.4577 41.247 37.2388 41.247 37.0105L41.047 37.0105ZM41.047 19.9125L41.047 37.0105L41.247 37.0105L41.247 19.9125L41.047 19.9125ZM44.9016 23.5257L41.2177 19.8418L41.0763 19.9832L44.7602 23.6671L44.9016 23.5257ZM45.3688 23.7192C45.1936 23.7192 45.0255 23.6496 44.9016 23.5257L44.7602 23.6671C44.9216 23.8285 45.1405 23.9192 45.3688 23.9192V23.7192Z" fill="#CB8734" mask="url(#path-4-outside-1_162_2900)"/>
</svg>

<svg width="55" height="55" fill="none" xmlns="http://www.w3.org/2000/svg"><path d="M52.916 32.212a.81.81 0 0 0 1.384-.574V29.38a.811.811 0 0 0-1.621 0v2.26a.81.81 0 0 0 .237.573z" fill="#CB8734" stroke="#CB8734" stroke-width=".1"/><path d="M4.043 54.175h47.164a3.093 3.093 0 0 0 3.093-3.093V36.963a.81.81 0 0 0-1.621 0v14.12a1.472 1.472 0 0 1-1.472 1.47H4.043a1.472 1.472 0 0 1-1.472-1.47V3.917a1.471 1.471 0 0 1 1.472-1.472h47.164a1.471 1.471 0 0 1 1.472 1.472v12.597a.81.81 0 1 0 1.621 0V3.918A3.093 3.093 0 0 0 51.207.825H4.043A3.093 3.093 0 0 0 .95 3.918v47.164a3.093 3.093 0 0 0 3.093 3.093z" fill="#CB8734" stroke="#CB8734" stroke-width=".1"/><path d="M52.916 24.627a.81.81 0 0 0 1.384-.573V21.84a.81.81 0 1 0-1.621 0v2.214a.81.81 0 0 0 .237.573z" fill="#CB8734" stroke="#CB8734" stroke-width=".1"/><mask id="a" maskUnits="userSpaceOnUse" x="28.429" y="15.522" width="24.042" height="24.042" fill="#000"><path fill="#fff" d="M28.429 15.522h24.042v24.042H28.429z"/><path fill-rule="evenodd" clip-rule="evenodd" d="M45.369 23.82a.76.76 0 0 0 .538-1.3l-4.983-4.982a.761.761 0 0 0-1.076 0l-4.982 4.983a.76.76 0 1 0 1.075 1.075l3.685-3.684v17.099a.761.761 0 0 0 1.521 0V19.912l3.684 3.684a.761.761 0 0 0 .538.223z"/></mask><path fill-rule="evenodd" clip-rule="evenodd" d="M45.369 23.82a.76.76 0 0 0 .538-1.3l-4.983-4.982a.761.761 0 0 0-1.076 0l-4.982 4.983a.76.76 0 1 0 1.075 1.075l3.685-3.684v17.099a.761.761 0 0 0 1.521 0V19.912l3.684 3.684a.761.761 0 0 0 .538.223z" fill="#CB8734"/><path d="m45.907 22.52.07-.07-.07.07zm-4.983-4.982-.07.07.07-.07zm-.538-.223v-.1.1zm-5.743 5.743h-.1.1zm.76.761v-.1.1zm4.223-3.907h.1v-.241l-.17.17.07.071zm0 17.099h-.1.1zm.128.422-.083.056.083-.056zm.341.28-.038.093.038-.093zm.44.044.02.098-.02-.098zm.39-.209.07.071-.07-.07zm.222-.538h-.1.1zm0-17.097.07-.071-.17-.17v.24h.1zm4.689 3.613a.66.66 0 0 1-.467.193v.2a.86.86 0 0 0 .608-.252l-.141-.141zm.194-.468a.66.66 0 0 1-.194.468l.141.141a.86.86 0 0 0 .253-.609h-.2zm-.194-.467a.66.66 0 0 1 .194.467h.2a.86.86 0 0 0-.253-.608l-.141.141zm-4.983-4.982 4.983 4.982.141-.141-4.982-4.983-.142.142zm-.467-.194a.66.66 0 0 1 .467.194l.142-.142a.86.86 0 0 0-.609-.252v.2zm-.467.194a.66.66 0 0 1 .467-.194v-.2a.86.86 0 0 0-.608.252l.141.142zm-4.983 4.982 4.983-4.982-.141-.142-4.983 4.983.141.141zm-.193.467a.66.66 0 0 1 .193-.467l-.141-.141a.86.86 0 0 0-.252.608h.2zm.193.468a.66.66 0 0 1-.193-.468h-.2c0 .229.09.448.252.61l.141-.142zm.468.193a.66.66 0 0 1-.468-.193l-.141.141c.161.161.38.252.609.252v-.2zm.467-.193a.66.66 0 0 1-.467.193v.2a.86.86 0 0 0 .608-.252l-.141-.141zm3.684-3.685-3.684 3.685.141.141 3.684-3.684-.14-.142zm.17 17.17V19.912h-.2v17.099h.2zm.112.366a.66.66 0 0 1-.111-.367h-.2c0 .17.05.337.145.479l.166-.111zm.297.244a.66.66 0 0 1-.297-.244l-.166.112a.86.86 0 0 0 .386.317l.077-.185zm.381.037a.66.66 0 0 1-.381-.037l-.077.185a.86.86 0 0 0 .497.049l-.039-.197zm.339-.18a.66.66 0 0 1-.339.18l.04.197a.86.86 0 0 0 .44-.236l-.141-.141zm.193-.468a.66.66 0 0 1-.193.468l.141.141a.86.86 0 0 0 .252-.608h-.2zm0-17.097V37.01h.2V19.912h-.2zm3.855 3.613-3.684-3.684-.142.141 3.684 3.684.142-.141zm.467.193a.66.66 0 0 1-.467-.193l-.142.141a.86.86 0 0 0 .609.252v-.2z" fill="#CB8734" mask="url(#a)"/></svg>
